X:1
T:Nearer Every Day
T:Nearer Every Day
T:Adam Geibel
T:Johnson Oatman, Jr., 1898
T:Public Domain Courtesy of the Cyber Hymnal™
T:Public Domain Courtesy of the Cyber Hymnal™
C:Adam Geibel
Z:Public Domain
Z:Courtesy of the Cyber Hymnal™
%%score ( 1 2 ) ( 3 4 )
L:1/8
Q:1/4=94
M:4/4
K:A
V:1 treble 
V:2 treble 
V:3 bass 
V:4 bass 
V:1
 [A,C][B,D] | [CE][CE][^B,^D][CE] [=DF][CE][A,C][CE] | [CA][CA][CA][DB] [CA]2 [DA][DB] | %3
w: 1.~To my|bless- èd Lord and Sav- ior, As He|walks be- fore me here, I am|
w: 2.~To the|pure and per- fect sta- ture Of our|great and liv- ing Head, I am|
w: 3.~To the|time when I shall glad- ly Lay my|cross and ban- ners down, I am|
w: 4.~To that|blest e- ter- nal ci- ty That lies|just a- cross the foam, I am|
 [Ec][Ec][Ec][Ec] [Ee][Ec][Ec][EA] | [EB]6 [A,C][B,D] | [CE][CE][^B,^D][CE] [=DF][CE][A,C][CE] | %6
w: get- ting near- er, near- er ev- ery|day! And He|says I shall be like Him When be-|
w: get- ting near- er, near- er ev- ery|day! To the|per- fect will of Je- sus In the|
w: get- ting near- er, near- er ev- ery|day; To the|time when from my Sav- ior I’ll re-|
w: get- ting near- er, near- er ev- ery|day; Oft- en|thro’ faith’s o- pen vi- sion I can|
 [CA][CA][DA][DB] [CA]2 [EA][EB] | [Ec][Ec][Ec][Ec] [Ee][Ec] [Ec]>[DB] | [CA]6 || %9
w: fore Him I ap- pear, And I’m|get- ting near- er, near- er ev- ery|day.|
w: way that I am led, I am|get- ting near- er, near- er ev- ery|day.|
w: ceive a robe and crown, I am|get- ting near- er, near- er ev- ery|day.|
w: see the spires of home, And I’m|get- ting near- er, near- er ev- ery|day.|
"^Refrain" [=GB][Gc] | [Fd]2 [Fd]>[Fd] [Fd][=FG][FA][FB] | [Ed] [Ec]3 z2 [Ec]>[Ec] | %12
w: |||
w: Ev- ery|day, praise the Lord, I’m get- ting|near- er, And the|
w: |||
w: |||
 [Ae]2 [Ec]>[EB] [EA][EA][EG][EA] | [Ac] [GB]3 z2 [DE][DE] | [CA][CA][CA][CA] [Ec]2 [=Gc][Gc] | %15
w: |||
w: way, praise the Lord, is get- ting|clear- er; From my|Lord no more I’ll roam, For I|
w: |||
w: |||
 [Fe][Fd][Fd][DF] !fermata![FA]2 [FA][=FB] | [Ec][Ec][Ec][Ec] [Ee][Ec] [Ec]>[DB] | A6 |] %18
w: |||
w: see the lights of home, And I’m|get- ting near- er, near- er ev- ery|day.|
w: |||
w: |||
V:2
 x2 | x8 | x8 | x8 | x8 | x8 | x8 | x8 | x6 || x2 | x8 | x8 | x8 | x8 | x8 | x8 | x8 | %17
 (C2 DD C2) |] %18
V:3
 [A,,E,][A,,E,] | [A,,A,][A,,A,][A,,A,][A,,A,] [A,,A,][A,,A,][A,,E,][A,,A,] | %2
w: ~ ~|~ ~ ~ ~ ~ ~ ~ ~|
 [A,,E,][A,,E,][D,F,][D,F,] [A,,E,]2 [C,A,][E,G,] | A,A,A,A, [A,C]A,[A,,A,][C,A,] | %4
w: ~ ~ ~ ~ ~ ~ ~|~ ~ ~ ~ ~ ~ ~ ~|
 G,6 [A,,E,][A,,E,] | [A,,A,][A,,A,][A,,A,][A,,A,] [A,,A,][A,,A,][A,,E,][A,,A,] | %6
w: ~ ev- ery|day * * * * * * *|
 [A,,E,][A,,E,][D,F,][D,F,] [A,,E,]2 [C,A,][E,G,] | A,A,A,A, [A,C]A, [E,G,]>E, | [A,,E,]6 || A,A, | %10
w: ||||
 [D,A,]2 [D,A,]>[D,A,] [D,A,][D,A,][D,A,][D,A,] | [A,,A,] [A,,A,]3 z2 A,>[A,C] | %12
w: ||
 [A,C]2 [A,E]>[A,D] [A,C][A,C][B,D][A,C] | [E,E] [E,E]3 z2 [E,G,][E,G,] | %14
w: ||
 [A,,A,][A,,A,][A,,A,][A,,A,] [A,,A,]2 A,A, | %15
w: |
 [D,A,][D,A,][D,A,][D,A,] !fermata![D,A,]2 [D,A,][D,A,] | %16
w: |
 [E,A,][E,A,][E,A,][E,A,] [E,C][E,A,] [E,G,]>E, | ([A,,E,]2 [D,F,][D,F,] [A,,E,]2) |] %18
w: ||
V:4
 x2 | x8 | x8 | A,A,A,A, A, x3 | E,2 E,E, E,2 x2 | x8 | x8 | A,A,A,A, A, x/ E,/ x2 | x6 || A,A, | %10
 x8 | x6 A,3/2 x/ | x8 | x8 | x6 A,A, | x8 | x15/2 E,/ | x6 |] %18

